svg/mcv4u/first-principle.svg

<svg xmlns="http://www.w3.org/2000/svg" viewBox="0 0 486.208 359.496" xml:space="preserve"><path fill="none" stroke="#CCC" stroke-miterlimit="10" d="M420.5 32v301M370.5 73v260m0-301v11M320.5 73v260m0-301v11M270.5 73v260m0-301v11M220.5 32v301M170.5 129v204m0-301v67M120.5 32v301m-50-301v301M471 82.5H20m451 50H20m451 50H20m451 50H20m451 50H20"/><path fill="none" stroke="#000" stroke-miterlimit="10" d="M465 332.5H20.5V38"/><path d="m461.743 328.469 1.573 3.703-1.573 3.703 8.778-3.703zM23.724 40.45l-3.703-1.573-3.703 1.573 3.703-8.778z"/><text transform="translate(475.132 337.972)" font-family="'Equity Text B'" font-style="italic" font-size="24">x</text><text transform="translate(6.133 20.472)"><tspan x="0" y="0" font-family="'Equity Text B'" font-style="italic" font-size="24" letter-spacing="2">f</tspan><tspan x="9.384" y="0" font-family="'Equity Text B'" font-size="24">(</tspan><tspan x="17.231" y="0" font-family="'Equity Text B'" font-style="italic" font-size="24">x</tspan><tspan x="27.815" y="0" font-family="'Equity Text B'" font-size="24">)</tspan></text><path fill="none" stroke="#000" stroke-miterlimit="10" d="M15 82.5h5m-5 50h5m-5 50h5m-5 50h5m-5 50h5M420.5 333v5m-50-5v5m-50-5v5m-50-5v5m-50-5v5m-50-5v5m-50-5v5m-50-5v5"/><text transform="translate(66.227 355.817)" font-family="'Concourse T3'" font-size="16">1</text><text transform="translate(1.6 287.746)" font-family="'Concourse T3'" font-size="16">1</text><text transform="translate(.16 237.746)" font-family="'Concourse T3'" font-size="16">2</text><text transform="translate(.48 187.746)" font-family="'Concourse T3'" font-size="16">3</text><text transform="translate(0 137.746)" font-family="'Concourse T3'" font-size="16">4</text><text transform="translate(.16 87.746)" font-family="'Concourse T3'" font-size="16">5</text><text transform="translate(116.027 355.817)" font-family="'Concourse T3'" font-size="16">2</text><text transform="translate(165.527 355.817)" font-family="'Concourse T3'" font-size="16">3</text><text transform="translate(215.227 355.817)" font-family="'Concourse T3'" font-size="16">4</text><text transform="translate(265.527 355.817)" font-family="'Concourse T3'" font-size="16">5</text><text transform="translate(315.606 355.817)" font-family="'Concourse T3'" font-size="16">6</text><text transform="translate(365.786 355.817)" font-family="'Concourse T3'" font-size="16">7</text><text transform="translate(415.766 355.817)" font-family="'Concourse T3'" font-size="16">8</text><circle cx="220.47" cy="132.512" r="4"/><circle cx="305.47" cy="82.512" r="4"/><path fill="none" stroke="#000" stroke-miterlimit="10" stroke-dasharray="4" d="m305.47 82.512-85 50"/><path fill="none" stroke="#000" stroke-width="2" stroke-miterlimit="10" d="M21.021 132.676S44.667 228 120 231.333c75.333 3.333 84.667-120 150.667-149.333s136.667 120.344 150 250.672"/><text transform="translate(137.667 118.912)"><tspan x="0" y="0" font-family="'Equity Text B'" font-size="24">(</tspan><tspan x="8.447" y="0" font-family="'Equity Text B'" font-style="italic" font-size="24">a</tspan><tspan x="19.848" y="0" font-family="'Equity Text B'" font-size="24">, </tspan><tspan x="31.535" y="0" font-family="'Equity Text B'" font-style="italic" font-size="24" letter-spacing="2">f</tspan><tspan x="40.919" y="0" font-family="'Equity Text B'" font-size="24">(</tspan><tspan x="48.767" y="0" font-family="'Equity Text B'" font-style="italic" font-size="24">a</tspan><tspan x="60.166" y="0" font-family="'Equity Text B'" font-size="24">))</tspan></text><text transform="translate(256.333 64.512)"><tspan x="0" y="0" font-family="'Equity Text B'" font-size="24">(</tspan><tspan x="8.447" y="0" font-family="'Equity Text B'" font-style="italic" font-size="24">a+h</tspan><tspan x="44.159" y="0" font-family="'Equity Text B'" font-size="24">, </tspan><tspan x="55.847" y="0" font-family="'Equity Text B'" font-style="italic" font-size="24" letter-spacing="2">f</tspan><tspan x="65.23" y="0" font-family="'Equity Text B'" font-size="24">(</tspan><tspan x="73.078" y="0" font-family="'Equity Text B'" font-style="italic" font-size="24">a+h</tspan><tspan x="108.79" y="0" font-family="'Equity Text B'" font-size="24">))</tspan></text><text transform="translate(258.333 163.667)" font-family="'Equity Text B'" font-style="italic" font-size="24">h</text><path fill="none" stroke="#000" stroke-miterlimit="10" d="M274 157.5h30"/><path d="m300.602 161.59-.682-.733 3.612-3.356-3.612-3.357.682-.733 4.398 4.09z"/><path fill="none" stroke="#000" stroke-miterlimit="10" d="M221 157.5h33"/><path d="m224.398 161.59.682-.733-3.612-3.356 3.612-3.357-.682-.733-4.398 4.09z"/><path fill="none" stroke="#FF5000" stroke-width="1.5" stroke-miterlimit="10" d="M257.899 75.196 181.194 189.29"/></svg>

<svg xmlns="http://www.w3.org/2000/svg" viewBox="0 0 486.208 359.496" xml:space="preserve"><path fill="none" stroke="#CCC" stroke-miterlimit="10" d="M420.5 32v301"/><g fill="none" stroke="#CCC" stroke-miterlimit="10"><path d="M370.5 73v260M370.5 32v11"/></g><g fill="none" stroke="#CCC" stroke-miterlimit="10"><path d="M320.5 73v260M320.5 32v11"/></g><g fill="none" stroke="#CCC" stroke-miterlimit="10"><path d="M270.5 73v260M270.5 32v11"/></g><path fill="none" stroke="#CCC" stroke-miterlimit="10" d="M220.5 32v301"/><g fill="none" stroke="#CCC" stroke-miterlimit="10"><path d="M170.5 129v204M170.5 32v67"/></g><path fill="none" stroke="#CCC" stroke-miterlimit="10" d="M120.5 32v301M70.5 32v301M471 82.5H20M471 132.5H20M471 182.5H20M471 232.5H20M471 282.5H20"/><path fill="none" stroke="#000" stroke-miterlimit="10" d="M465 332.5H20.5V38"/><path fill="#000" d="m461.743 328.469 1.573 3.703-1.573 3.703 8.778-3.703zM23.724 40.45l-3.703-1.573-3.703 1.573 3.703-8.778z"/><text transform="translate(475.132 337.972)" font-family="'Equity Text B'" font-style="italic" font-size="24">x</text><text transform="translate(6.133 20.472)"><tspan x="0" y="0" font-family="'Equity Text B'" font-style="italic" font-size="24" letter-spacing="2">f</tspan><tspan x="9.384" y="0" font-family="'Equity Text B'" font-size="24">(</tspan><tspan x="17.231" y="0" font-family="'Equity Text B'" font-style="italic" font-size="24">x</tspan><tspan x="27.815" y="0" font-family="'Equity Text B'" font-size="24">)</tspan></text><path fill="none" stroke="#000" stroke-miterlimit="10" d="M15 82.5h5M15 132.5h5M15 182.5h5M15 232.5h5M15 282.5h5M420.5 333v5M370.5 333v5M320.5 333v5M270.5 333v5M220.5 333v5M170.5 333v5M120.5 333v5M70.5 333v5"/><text transform="translate(66.227 355.817)" font-family="'Concourse T3'" font-size="16">1</text><text transform="translate(1.6 287.746)" font-family="'Concourse T3'" font-size="16">1</text><text transform="translate(.16 237.746)" font-family="'Concourse T3'" font-size="16">2</text><text transform="translate(.48 187.746)" font-family="'Concourse T3'" font-size="16">3</text><text transform="translate(0 137.746)" font-family="'Concourse T3'" font-size="16">4</text><text transform="translate(.16 87.746)" font-family="'Concourse T3'" font-size="16">5</text><text transform="translate(116.027 355.817)" font-family="'Concourse T3'" font-size="16">2</text><text transform="translate(165.527 355.817)" font-family="'Concourse T3'" font-size="16">3</text><text transform="translate(215.227 355.817)" font-family="'Concourse T3'" font-size="16">4</text><text transform="translate(265.527 355.817)" font-family="'Concourse T3'" font-size="16">5</text><text transform="translate(315.606 355.817)" font-family="'Concourse T3'" font-size="16">6</text><text transform="translate(365.786 355.817)" font-family="'Concourse T3'" font-size="16">7</text><text transform="translate(415.766 355.817)" font-family="'Concourse T3'" font-size="16">8</text><circle fill="#000" cx="220.47" cy="132.512" r="4"/><circle fill="#000" cx="305.47" cy="82.512" r="4"/><path fill="none" stroke="#000" stroke-miterlimit="10" stroke-dasharray="4" d="m305.47 82.512-85 50"/><path fill="none" stroke="#000" stroke-width="2" stroke-miterlimit="10" d="M21.021 132.676S44.667 228 120 231.333c75.333 3.333 84.667-120 150.667-149.333s136.667 120.344 150 250.672"/><text transform="translate(137.667 118.912)"><tspan x="0" y="0" font-family="'Equity Text B'" font-size="24">(</tspan><tspan x="8.447" y="0" font-family="'Equity Text B'" font-style="italic" font-size="24">a</tspan><tspan x="19.848" y="0" font-family="'Equity Text B'" font-size="24">, </tspan><tspan x="31.535" y="0" font-family="'Equity Text B'" font-style="italic" font-size="24" letter-spacing="2">f</tspan><tspan x="40.919" y="0" font-family="'Equity Text B'" font-size="24">(</tspan><tspan x="48.767" y="0" font-family="'Equity Text B'" font-style="italic" font-size="24">a</tspan><tspan x="60.166" y="0" font-family="'Equity Text B'" font-size="24">))</tspan></text><text transform="translate(256.333 64.512)"><tspan x="0" y="0" font-family="'Equity Text B'" font-size="24">(</tspan><tspan x="8.447" y="0" font-family="'Equity Text B'" font-style="italic" font-size="24">a+h</tspan><tspan x="44.159" y="0" font-family="'Equity Text B'" font-size="24">, </tspan><tspan x="55.847" y="0" font-family="'Equity Text B'" font-style="italic" font-size="24" letter-spacing="2">f</tspan><tspan x="65.23" y="0" font-family="'Equity Text B'" font-size="24">(</tspan><tspan x="73.078" y="0" font-family="'Equity Text B'" font-style="italic" font-size="24">a+h</tspan><tspan x="108.79" y="0" font-family="'Equity Text B'" font-size="24">))</tspan></text><text transform="translate(258.333 163.667)" font-family="'Equity Text B'" font-style="italic" font-size="24">h</text><path fill="none" stroke="#000" stroke-miterlimit="10" d="M274 157.5h30"/><path fill="#000" d="m300.602 161.59-.682-.733 3.612-3.356-3.612-3.357.682-.733 4.398 4.09z"/><path fill="none" stroke="#000" stroke-miterlimit="10" d="M221 157.5h33"/><path fill="#000" d="m224.398 161.59.682-.733-3.612-3.356 3.612-3.357-.682-.733-4.398 4.09z"/><path fill="none" stroke="#FF5000" stroke-width="1.5" stroke-miterlimit="10" d="M257.899 75.196 181.194 189.29"/></svg>
